X: 1894
T: Around The World For Sport
R: reel
M: 4/4
K: Edorian
G2BG FGA=c|B2BA BEEF|G2BG FABc|1 dBAG FDEF:|2 dBAd BEE2||
|:g2fg edBA|G2(3BAG Bdef|1 g2fg edBc|dBAG FDD2:|2 gfed efge|dBAF DFAF||

